X: 2420
T: Ballimacelligott
R: polka
M: 2/4
K: Gmajor
|:G>A Bd|Bd BG|A/B/c/B/ AB|cB AF|
G>A Bd|Bd BG|A/B/c/B/ AB|AF G2:|
~A3 B|cB AG|~A3 B|cB c/d/e|
~A3 B|cB AG|AG AB|cd ed|
~A3 B|cB AG|~A3 B|cB c/d/e|
~A3 B|cB AG|Ac B/c/d|ce df||
~g3 e|dB GE|~A3 B|cd ed|
fg ge|dB GE|A>B cB|AF G2:|

